Obsidian/actions/16s/paint-pattern.svg

<svg viewBox="0 0 16 16" xmlns="http://www.w3.org/2000/svg"><path d="m2 2v10 1 1h12v-12z" fill="#f2f2f2"/><path d="m4 2-2 2 2 2 2-2zm2 2 2 2 2-2-2-2zm4 0 2 2 2-2-2-2zm2 2-2 2 2 2 2-2zm0 4-2 2 2 2 2-2zm-2 2-2-2-2 2 2 2zm-4 0-2-2-2 2 2 2zm-2-2 2-2-2-2-2 2zm2-2 2 2 2-2-2-2z" fill="#fff"/></svg>

<svg xmlns="http://www.w3.org/2000/svg" viewBox="0 0 16 16">
  <defs id="defs3051">
    <style type="text/css" id="current-color-scheme">
      .ColorScheme-Text {
        color:#f2f2f2;
      }
      .ColorScheme-Highlight {
        color:#3daee9;
      }
      </style>
  </defs>
  <path 
        style="fill:currentColor;fill-opacity:1;stroke:none"
        d="M 2 2 L 2 12 L 2 13 L 2 14 L 14 14 L 14 2 L 2 2 z "
        class="ColorScheme-Text"
        />
  <path 
        style="fill:#ffffff;fill-opacity:1;stroke:none"
       d="M 4 2 L 2 4 L 4 6 L 6 4 L 4 2 z M 6 4 L 8 6 L 10 4 L 8 2 L 6 4 z M 10 4 L 12 6 L 14 4 L 12 2 L 10 4 z M 12 6 L 10 8 L 12 10 L 14 8 L 12 6 z M 12 10 L 10 12 L 12 14 L 14 12 L 12 10 z M 10 12 L 8 10 L 6 12 L 8 14 L 10 12 z M 6 12 L 4 10 L 2 12 L 4 14 L 6 12 z M 4 10 L 6 8 L 4 6 L 2 8 L 4 10 z M 6 8 L 8 10 L 10 8 L 8 6 L 6 8 z "
        />
</svg>
